X:1
T:His Eye Is on the Sparrow (Vocal Duet)
T:His Eye Is on the Sparrow
T:Charles Hutchinson Gabriel / Arr. by Mike Kirschman
T:Civilla Durfee Martin, 1905
T:Public Domain
T:Public Domain
T:Public Domain
T:Public Domain
T:Public Domain
T:Public Domain
T:Public Domain
T:Public Domain
T:Public Domain
C:Charles Hutchinson Gabriel
Z:Civilla Durfee Martin, 1905
Z:Public Domain
%%score 1 2 { ( 3 4 ) | ( 5 6 ) }
L:1/8
Q:3/8=60
M:6/8
K:Bb
V:1 treble nm="Mezzo-soprano" snm="S"
V:2 treble-8 nm="Tenor" snm="T"
V:3 treble nm="Piano" snm="P"
V:4 treble 
V:5 bass 
V:6 bass 
V:1
 z | z6 | z6 | z6 | z6 | z6 | FGF D2 B, | C D2- D3 | z6 | z6 | FEF G2 D | F E2- E3 | z6 | z4 z F | %14
w: ||||||1.Why should I feel dis-|cour- aged, _|||Why should my heart be|lone- ly _||When|
 B2 A cBD | F F2- F3 | z6 | z4 z G | A2 A AGA | B F2- F3 | z6 | z4 z F | B2 B B2 B | %23
w: Je- sus is * my|por- tion? _||His|eye is on * the|spar- row, _||His|eye is on the|
 B B,2- B,2 B,/B,/ | F2 D D C2 | B,6 | z6 || FGF D2 B, | C D2- D3 | EFG B2 B | F3- F2 z | %31
w: spar- row, _ And I|know He watch- es|me;||2."Let not your heart be|trou- bled," _|his ten- der word I|hear, _|
 FEF G2 D | F E2- E3 | EDC F2 F | D3- D2 F | B2 A ((cB))D | F F2- F2 F | B2 A (cB)F | G3- G2 G | %39
w: And rest- ing on His|good- ness, _|I lose my doubts and|fears; _ Though|by the path _ He|lead- eth _ But|one step I _ may|see; _ His|
 A2 A (AG)A | B F2- F2 D/D/ | F2 G F2 G | F3- F2 F | B2 B B2 B | B B,2- B,2 B,/B,/ | F2 D D C2 | %46
w: eye is on _ the|spar- row, _ And I|know He watch- es|me; _ His|eye is on the|spar- row, _ And I|know He watch- es|
 B,3- B,2 F | F2 A c2 F | F B2- B2 F | F2 A c2 F | d3- d2 B/B/ | B2 B B2 B | B B,2- B,2 B,/B,/ | %53
w: me; _ I|sing be- cause I'm|hap- py, _ I|sing be- cause I'm|free, _ For His|eye is on the|spar- row, _ And I|
 F2 D D C2 | B,6 | z6 | FGF D2 B, | C D2- D3 | EFG B2 B | F3- F2 z | FEF G2 D | F E2- E3 | %62
w: know He wat- ches|me.||3.When- ev- er I am|tempt- ed, _|When- ev- er clouds a-|rise, _|When songs give place to|sigh- ing, _|
 EDC F2 F | D3- D2 F | B2 A ((cB))D | F F2- F2 F | B2 A (cB)F | G3- G2 G | A2 A (AG)A | %69
w: When hope with- in me|dies, _ I|draw the clo- * ser|to Him, _ From|care He sets _ me|free; _ His|eye is on _ the|
 B F2- F2 D/D/ | F2 G F2 G | F3- F2 F | B2 B B2 B | B B,2- B,2 B,/B,/ | F2 D D C2 | B,3- B,2 F | %76
w: spar- row, _ And I|know He watch- es|me; _ His|eye is on the|spar- row, _ And I|know He watch- es|me; _ I|
 F2 A c2 F | F B2- B2 F | F2 A c2 F | d3- d2 B/B/ | B2 B B2 B | B B,2- B,2 B,/B,/ | F2 D D C2 | %83
w: sing be- cause I'm|hap- py, _ I|sing be- cause I'm|free, _ For His|eye is on the|spar- row, _ And I|know He wat- ches|
 B,6 |] %84
w: me.|
V:2
 z | z6 | z6 | z6 | z6 | z6 | z6 | z6 | EFG B2 B | F3- F2 z | z6 | z6 | EDC F2 F | D3- D3 | z6 | %15
w: ||||||||Why should the sha- dows|come, _|||And long for Heav'n and|home, _||
 z3 z2 F | B2 A cBF | G3- G2 z | z6 | z3 z2 D/D/ | F2 G F2 G | F3- F2 F | B2 B B2 B | %23
w: My|con- stant Friend * is|He: _||And I|know He watch- es|me; _ His|eye is on the|
 B B,2- B,2 B,/B,/ | F2 D D C2 | B,6 | z6 || DED F2 D | E F2- F3 | GFE G2 E | D2 E F2 z | %31
w: spar- row, _ And I|know He watch- es|me;|||||hear, I hear,|
 GGG G2 G | G G2- G3 | FFF C2 F | F3- F2 B | F2 F (FF)F | F (_A2 =A2) A | F2 F (FF)F | E2 D C2 C | %39
w: |||||||I may see; His|
 F2 F (FF)F | (F2 B) _A2 D/D/ | F2 F F2 F | BDE F2 B | F2 F F2 F | E E2- E2 E/E/ | D2 F F E2 | %46
w: eye is on _ the|spar- * row, And I|* He watch- es|He watch- es me; His|eye * * *|||
 D3- D2 B | A2 c A2 A | BFG FFB | A2 c A2 A | B2 B B2 F/F/ | F2 F F2 F | E E2- E2 E/E/ | %53
w: * * I|sing be- cause I'm|hap- py, I'm hap- py, I|sing be- cause I'm|free, I'm free, For His|eye * * *||
 D2 F F E2 | D6 | z6 | BBB B2 B | A B2- B3 | BBB B2 B | B2 c d2 z | dc=B d2 d | d c2- c3 | %62
w: ||||||rise, a- rise,|||
 ccc A2 A | B3- B2 d | d2 c edB | d(de e2) e | d2 d (ed)d | B2 =B c2 c | c2 c c-cc | %69
w: |||||sets me free; His|eye is on _ the|
 B B2- B2 B/B/ | e2 e e2 e | fBc d2 d | d2 d d2 d | B B2- B2 B/B/ | B2 B A A2 | B2 G F2 d | %76
w: * * * And I|know He watch- es|He watch- es me; His|eye * * *|||watch- es me; I|
 e2 e e2 e | dde ddd | e2 e e2 f | f2 f f2 d/d/ | d2 d d2 d | B B2- B2 B/B/ | B2 B A A2 | F6 |] %84
w: sing be- cause I'm|hap- py, I'm hap- py, I|sing be- cause I'm|free, I'm free, For His|eye * * *||||
V:3
 B | B2 B B2 B | B B,2- B,2 B,/B,/ | F2 D D C2 | B,3 B,3 | B,3- B,3 | FGF D2 B, | C D2- D3 | %8
 EFG B2 B | F3- F2 z | FEF G2 D | F E2- E3 | EDC F2 F | D3- D2 F | B2 A cBD | F F2- F2 F | %16
 B2 A cBF | G3- G2 G | A2 A AGA | B F2- F2 D/D/ | F2 G F2 G | F3- F2 F | B2 B B2 B | %23
 B B,2- B,2 B,/B,/ | F2 D D C2 | B,3 B,3 | B,3- B,3 || FGF D2 B, | C D2- D3 | EFG B2 B | F3- F2 z | %31
 FEF G2 D | F E2- E3 | EDC F2 F | D3- D2 F | B2 A cBD | F F2- F2 F | B2 A cBF | G3- G2 G | %39
 A2 A AGA | B F2- F2 D/D/ | F2 G F2 G | F3- F2 F | B2 B B2 B | B B,2- B,2 B,/B,/ | F2 D D C2 | %46
 B,3- B,2 F | F2 A c2 F | F B2- B2 F | F2 A c2 F | d3- d2 B/B/ | B2 B B2 B | B B,2- B,2 B,/B,/ | %53
 F2 D D C2 | B,3 B,3 | B,3- B,3 | FGF D2 B, | C D2- D3 | EFG B2 B | F3- F2 z | FEF G2 D | %61
 F E2- E3 | EDC F2 F | D3- D2 F | B2 A cBD | F F2- F2 F | B2 A cBF | G3- G2 G | A2 A AGA | %69
 B F2- F2 D/D/ | F2 G F2 G | F3- F2 F | B2 B B2 B | B B,2- B,2 B,/B,/ | F2 D D C2 | B,3- B,2 F | %76
 F2 A c2 F | F B2- B2 F | F2 A c2 F | d3- d2 B/B/ | B2 B B2 B | B B,2- B,2 B,/B,/ | F2 D D C2 | %83
 B,6 |] %84
V:4
 D | D2 D D2 D | B, B,2- B,2 B,/B,/ | B,2 B, A, A,2 | B,2 G, F,2 G, | B,2 G, F,3 | B,3- B,3 | %7
 A,B,B,- B,3 | B,3- B,3 | B,2 C D2 z | DC=B, D3 | D C2- C3 | C3 A,3 | B,2 B, B,2 D | D2 C EDB, | %15
 DDE EEE | D2 D EDD | [B,E]2 [=B,F] [CE]3 | C3 C2 C | B,3 D2 B, | E3- E3 | FB,C D2 D | D3- D3 | %23
 B,6 | B,3 A,3 | B,2 G, F,2 G, | B,2 G, F,3 || B,3- B,3 | A,B,B,- B,3 | B,3- B,3 | B,2 C D2 z | %31
 DC=B, D3 | D C2- C3 | C3 A,3 | B,2 B, B,2 D | D2 C EDB, | DDE EEE | D2 D EDD | %38
 [B,E]2 [=B,F] [CE]3 | C3 C2 C | B,3 D2 B, | E3- E3 | FB,C D2 D | D3- D3 | B,6 | B,3 A,3 | %46
 B,2 G, F,2 D | E2 E E2 E | DDE DDD | E2 E E2 F | F2 F F2 D/D/ | D2 D D2 D | B, B,2- B,2 B,/B,/ | %53
 B,2 B, A, A,2 | F,2 G, F,2 G, | B,2 G, F,3 | B,3- B,3 | A,B,B,- B,3 | B,3- B,3 | B,2 C D2 z | %60
 DC=B, D3 | D C2- C3 | C3 A,3 | B,2 B, B,2 D | D2 C EDB, | DDE EEE | D2 D EDD | %67
 [B,E]2 [=B,F] [CE]3 | C3 C2 C | B,3 D2 B, | E3- E3 | FB,C D2 D | D3- D3 | B,6 | B,3 A,3 | %75
 B,2 G, F,2 D | E2 E E2 E | DDE DDD | E2 E E2 F | F2 F F2 D/D/ | D2 D D2 D | B, B,2- B,2 B,/B,/ | %82
 B,2 B, A, A,2 | F,6 |] %84
V:5
 F, | F,2 F, F,2 F, | E, E,2 E,2 E,/E,/ | D,2 F, F, E,2 | D,2 E, D,2 E, | D,2 E, D,3 | %6
 D,E,D, F,2 D, | E,F,F, F,2 _A, | G,F,E, G,2 E, | D,2 E, F,2 z | G,3 G,3 | G,2 G, G,2 G, | %12
 F,3 C,2 F, | F,2 F, F,2 B, | F,3- F,3 | F,2 _A, =A,A,A, | F,3 F,3 | E,2 D, C,3 | F,3 F,3 | %19
 F,2 B, _A,3 | A,3 A,3 | B,D,E, F,2 B, | F,3- F,3 | E,3 E,3 | D,2 F, F, E,2 | D,2 E, D,2 E, | %26
 D,2 E, D,3 || D,E,D, F,2 D, | E,F,F, F,2 _A, | G,F,E, G,2 E, | D,2 E, F,2 z | G,3 G,3 | %32
 G,2 G, G,2 G, | F,3 C,2 F, | F,2 F, F,2 B, | F,3- F,3 | F,2 _A, =A,A,A, | F,3 F,3 | E,2 D, C,3 | %39
 F,3 F,3 | F,2 B, _A,3 | A,3 A,3 | B,D,E, F,2 B, | F,3- F,3 | E,3 E,3 | D,2 F, F, E,2 | %46
 D,2 E, D,2 B, | A,2 C A,2 A, | B,F,G, F,F,B, | A,2 C A,2 A, | B,2 B, B,2 F,/F,/ | F,2 F, F,2 F, | %52
 E, E,2 E,2 E,/E,/ | D,2 F, F, E,2 | D,2 E, D,2 E, | D,2 E, D,3 | D,E,D, F,2 D, | E,F,F, F,2 _A, | %58
 G,F,E, G,2 E, | D,2 E, F,2 z | G,3 G,3 | G,2 G, G,2 G, | F,3 C,2 F, | F,2 F, F,2 B, | F,3- F,3 | %65
 F,2 _A, =A,A,A, | F,3 F,3 | E,2 D, C,3 | F,3 F,3 | F,2 B, _A,3 | A,3 A,3 | B,D,E, F,2 B, | %72
 F,3- F,3 | E,3 E,3 | D,2 F, F, E,2 | D,2 E, D,2 B, | A,2 C A,2 A, | B,F,G, F,F,B, | A,2 C A,2 A, | %79
 B,2 B, B,2 F,/F,/ | F,2 F, F,2 F, | E, E,2 E,2 E,/E,/ | D,2 F, F, E,2 | D,6 |] %84
V:6
 B,, | _A,,2 A,, A,,2 A,, | G,, G,,2 ^F,,2 F,,/F,,/ | F,,2 F,, F,, F,,2 | B,,3 B,,3 | B,,3- B,,3 | %6
 B,,3- B,,3 | F,,B,,B,, B,,3 | E,3 E,2 G,, | B,,3- B,,2 z | G,,3 =B,,3 | C,2 C, B,,3 | A,,3 F,,3 | %13
 B,,2 B,, B,,2 B,, | B,,3- B,,3 | B,,2 =B,, C,C,F, | B,,3 B,,3 | x6 | F,,3 E,3 | D,3 =B,,3 | %20
 C,3 F,,3 | B,,3- B,,2 B,, | A,,3- A,,3 | G,,3 ^F,,3 | F,,3- F,,3 | B,,3 B,,3 | B,,3- B,,3 || %27
 B,,3- B,,3 | F,,B,,B,, B,,3 | E,3 E,2 G,, | B,,3- B,,2 z | G,,3 =B,,3 | C,2 C, B,,3 | A,,3 F,,3 | %34
 B,,2 B,, B,,2 B,, | B,,3- B,,3 | B,,2 =B,, C,C,F, | B,,3 B,,3 | x6 | F,,3 E,3 | D,3 =B,,3 | %41
 C,3 F,,3 | B,,3- B,,2 B,, | A,,3- A,,3 | G,,3 ^F,,3 | F,,3- F,,3 | B,,3- B,,2 B,, | %47
 F,2 F, F,2 F, | B,,B,,B,, B,,B,,B,, | C,2 F, F,,2 F, | B,,2 B,, B,,2 B,,/B,,/ | %51
 _A,,2 A,, A,,2 A,, | G,, G,,2 ^F,,2 F,,/F,,/ | F,,2 F,, F,, F,,2 | B,,3 B,,3 | B,,3- B,,3 | %56
 B,,3- B,,3 | F,,B,,B,, B,,3 | E,3 E,2 G,, | B,,3- B,,2 z | G,,3 =B,,3 | C,2 C, B,,3 | A,,3 F,,3 | %63
 B,,2 B,, B,,2 B,, | B,,3- B,,3 | B,,2 =B,, C,C,F, | B,,3 B,,3 | x6 | F,,3 E,3 | D,3 =B,,3 | %70
 C,3 F,,3 | B,,3- B,,2 B,, | A,,3- A,,3 | G,,3 ^F,,3 | F,,3- F,,3 | B,,3- B,,2 B,, | %76
 F,2 F, F,2 F, | B,,B,,B,, B,,B,,B,, | C,2 F, F,,2 F, | B,,2 B,, B,,2 B,,/B,,/ | %80
 _A,,2 A,, A,,2 A,, | G,, G,,2 ^F,,2 F,,/F,,/ | F,,2 F,, F,, F,,2 | B,,6 |] %84

